style-guide/assets/wds-icons-link-small.svg

<svg xmlns="http://www.w3.org/2000/svg" xmlns:xlink="http://www.w3.org/1999/xlink" width="18" height="18" viewBox="0 0 18 18">
  <defs>
    <path id="link-a" d="M9.605,6.9805 C9.996,6.5895 10.628,6.5895 11.019,6.9805 C13.038,9.0005 13.038,12.2835 11.019,14.3025 L9.838,15.4835 C8.86,16.4605 7.56,17.0005 6.177,17.0005 C4.794,17.0005 3.494,16.4605 2.517,15.4835 C1.539,14.5055 1,13.2065 1,11.8225 C1,10.4395 1.539,9.1405 2.517,8.1625 C2.907,7.7715 3.54,7.7715 3.931,8.1625 C4.321,8.5525 4.321,9.1855 3.931,9.5765 C3.331,10.1755 3,10.9745 3,11.8225 C3,12.6715 3.331,13.4685 3.931,14.0695 C5.131,15.2695 7.224,15.2695 8.424,14.0695 L9.605,12.8885 C10.844,11.6495 10.844,9.6335 9.605,8.3945 C9.214,8.0035 9.214,7.3715 9.605,6.9805 Z M15.4956,2.5039 C16.4656,3.4749 16.9996,4.7639 16.9996,6.1349 C16.9996,7.5069 16.4656,8.7969 15.4956,9.7669 C15.1046,10.1569 14.4726,10.1569 14.0816,9.7669 C13.6906,9.3759 13.6906,8.7429 14.0816,8.3529 C14.6736,7.7599 14.9996,6.9729 14.9996,6.1349 C14.9996,5.2979 14.6736,4.5109 14.0816,3.9179 C12.8966,2.7339 10.8316,2.7339 9.6476,3.9179 L8.4776,5.0879 C7.8856,5.6799 7.5596,6.4669 7.5596,7.3049 C7.5596,8.1429 7.8856,8.9299 8.4776,9.5219 C8.8686,9.9119 8.8686,10.5449 8.4776,10.9359 C8.2826,11.1309 8.0266,11.2289 7.7706,11.2289 C7.5156,11.2289 7.2596,11.1309 7.0636,10.9359 C6.0936,9.9669 5.5596,8.6769 5.5596,7.3049 C5.5596,5.9339 6.0936,4.6439 7.0636,3.6739 L8.2336,2.5039 C9.2036,1.5339 10.4936,0.9999 11.8646,0.9999 C13.2366,0.9999 14.5256,1.5339 15.4956,2.5039 Z"/>
  </defs>
  <use fill-rule="evenodd" xlink:href="#link-a"/>
</svg>

<svg viewBox="0 0 18 18" xmlns="http://www.w3.org/2000/svg">
  <path d="M9.605 6.98a.999.999 0 0 1 1.414 0 5.183 5.183 0 0 1 0 7.322l-1.181 1.181A5.148 5.148 0 0 1 6.177 17a5.144 5.144 0 0 1-3.66-1.517A5.142 5.142 0 0 1 1 11.823a5.14 5.14 0 0 1 1.517-3.66.999.999 0 1 1 1.414 1.413A3.155 3.155 0 0 0 3 11.822c0 .85.331 1.647.931 2.248 1.2 1.2 3.293 1.2 4.493 0l1.181-1.181a3.181 3.181 0 0 0 0-4.494.999.999 0 0 1 0-1.414zm5.89-4.476A5.104 5.104 0 0 1 17 6.134a5.103 5.103 0 0 1-1.504 3.633 1 1 0 0 1-1.414-1.414c.592-.593.918-1.38.918-2.218 0-.837-.326-1.624-.918-2.217-1.185-1.184-3.25-1.184-4.434 0l-1.17 1.17a3.114 3.114 0 0 0-.918 2.217c0 .838.326 1.625.918 2.217a.999.999 0 1 1-1.414 1.414A5.099 5.099 0 0 1 5.56 7.305c0-1.371.534-2.661 1.504-3.631l1.17-1.17A5.102 5.102 0 0 1 11.864 1a5.1 5.1 0 0 1 3.632 1.504z" fill-rule="evenodd"/>
</svg>
